X: 1
T: Garryowen
R: jig
M: 6/8
L: 1/8
K: Dmaj
dc |:BAG FED |FGF Fdc |BAG FED |EFE Edc |
BAG FED |FGF F2 G |ABc dAF |1EFE E dc :|2EFE EFG ||
|:A2 F A2 F |A2 F Adc |B2 G B2 G |B2 G B2 c |
d2 e f2 e |dcB AFG |ABc dAF |1|3EFE EFG :|2|4EFE E dc ||:|


Tune 1372	Setting 14729

